X: 34966
T: Rod Alexander's
R: reel
M: 4/4
K: Adorian
E|"Am"{AB}[A2A2] cB A/Ez/GE|ABcB Ac{Bc}BA|"G"[G2G,2] BA "C"G/Ez/DE|"G"GABG "Em"{AB}[A2A2] GE|
"Am"{AB}[A2A2] cB A/Ez/GE|ABcB Ac{Bc}BA|"G"GEDB, G,B,Dg|"C"ec"G"dB "Am"{AB}[A2A2] A:|
|:B|"Am"A/az/ag aeea|"Em"gabg "Am"a/a/a ge|"G"dgga "C"{ga}gede|"G"gabg "Em"{ef}[e2e2] dB|
"Am"e/az/ag aeea|"Em"gabg "Am"a/a/a {Bc}BA|"G"GEDB, G,B,Dg|"C"ec"G"dB "Am"{AB}[A2A2] A:|

